build/category/CreditOutline.svg

<svg xmlns="http://www.w3.org/2000/svg" fill="none" viewBox="0 0 24 24" focusable="false"><path d="M0 0H24V24H0z"/><path fill="#74767B" fill-rule="evenodd" d="M8.13998 1.95001C8.49896 1.95001 8.78998 2.24103 8.78998 2.60001L8.78998 3.99002L11.35 3.99002L11.35 2.60001C11.35 2.24103 11.641 1.95001 12 1.95001C12.359 1.95001 12.65 2.24103 12.65 2.60001L12.65 3.99002L15.2 3.99002L15.2 2.60001C15.2 2.24103 15.491 1.95001 15.85 1.95001C16.209 1.95001 16.5 2.24103 16.5 2.60001L16.5 3.99002L17 3.99002C18.65 3.99002 20 5.33002 20 6.99002L20 17C20 18.66 18.66 20 17 20L7 20C5.34 20 4 18.66 4 17L4 6.99002C4 5.33002 5.34 3.99002 7 3.99002L7.48998 3.99002L7.48998 2.60001C7.48998 2.24103 7.78099 1.95001 8.13998 1.95001ZM7.48998 6.86001L7.48998 5.29002L7 5.29002C6.06 5.29002 5.3 6.05002 5.3 6.99002L5.3 17C5.3 17.94 6.06 18.7 7 18.7L17 18.7C17.94 18.7 18.7 17.94 18.7 17L18.7 6.99002C18.7 6.05002 17.94 5.29002 17 5.29002L16.5 5.29002L16.5 6.86001C16.5 7.219 16.209 7.51001 15.85 7.51001C15.491 7.51001 15.2 7.219 15.2 6.86001L15.2 5.29002L12.65 5.29002L12.65 6.86001C12.65 7.219 12.359 7.51001 12 7.51001C11.641 7.51001 11.35 7.219 11.35 6.86001L11.35 5.29002L8.78998 5.29002L8.78998 6.86001C8.78998 7.219 8.49896 7.51001 8.13998 7.51001C7.78099 7.51001 7.48998 7.219 7.48998 6.86001ZM9.00064 12.6723C10.1052 12.6723 11.0006 11.7769 11.0006 10.6723C11.0006 9.56773 10.1052 8.6723 9.00064 8.6723C7.89607 8.6723 7.00064 9.56773 7.00064 10.6723C7.00064 11.7769 7.89607 12.6723 9.00064 12.6723ZM15.5035 9.5637C15.7581 9.81673 15.7594 10.2283 15.5064 10.4829L9.50275 16.5249C9.24972 16.7796 8.83817 16.7809 8.58352 16.5278C8.32887 16.2748 8.32756 15.8633 8.58059 15.6086L14.5842 9.56663C14.8373 9.31198 15.2488 9.31067 15.5035 9.5637ZM9.00064 11.3723C9.38724 11.3723 9.70064 11.0589 9.70064 10.6723C9.70064 10.2857 9.38724 9.9723 9.00064 9.9723C8.61404 9.9723 8.30064 10.2857 8.30064 10.6723C8.30064 11.0589 8.61404 11.3723 9.00064 11.3723ZM17.0031 15.4859C17.0031 16.5905 16.1076 17.4859 15.0031 17.4859C13.8985 17.4859 13.0031 16.5905 13.0031 15.4859C13.0031 14.3813 13.8985 13.4859 15.0031 13.4859C16.1076 13.4859 17.0031 14.3813 17.0031 15.4859ZM15.7031 15.4859C15.7031 15.8725 15.3897 16.1859 15.0031 16.1859C14.6165 16.1859 14.3031 15.8725 14.3031 15.4859C14.3031 15.0993 14.6165 14.7859 15.0031 14.7859C15.3897 14.7859 15.7031 15.0993 15.7031 15.4859Z"/></svg>

<svg xmlns="http://www.w3.org/2000/svg" fill="none" viewBox="0 0 24 24" focusable="false"><path fill="#74767B" fill-rule="evenodd" d="M8.14 1.95c.35 0 .65.29.65.65v1.38h2.56V2.6c0-.36.29-.65.65-.65.35 0 .64.29.64.65v1.38h2.56V2.6c0-.36.29-.65.65-.65.35 0 .65.29.65.65v1.38h.5c1.64 0 3 1.35 3 3V17c0 1.66-1.34 3-3 3H7c-1.67 0-3-1.34-3-3V6.98c0-1.65 1.33-3 3-3h.48V2.6c0-.36.3-.65.66-.65m-.66 4.9V5.29H7c-.94 0-1.71.75-1.71 1.69V17c0 .94.77 1.7 1.71 1.7h10c.93 0 1.7-.76 1.7-1.7V6.98c0-.94-.77-1.69-1.7-1.69h-.5v1.56c0 .36-.3.66-.65.66-.36 0-.65-.3-.65-.66V5.29h-2.56v1.56c0 .36-.29.66-.64.66-.36 0-.65-.3-.65-.66V5.29H8.79v1.56c0 .36-.3.66-.65.66-.36 0-.66-.3-.66-.66M11 10.67a2 2 0 1 1-4 0c0-1.11.89-2 2-2a2 2 0 0 1 2 2m4.5-1.11c.25.25.25.66 0 .92l-6 6.04c-.26.25-.67.26-.92 0a.64.64 0 0 1 0-.92l6-6.04c.25-.25.66-.25.92 0m-5.8 1.11c0 .38-.32.7-.7.7-.39 0-.7-.32-.7-.7 0-.39.31-.7.7-.7.38 0 .7.31.7.7m7.3 4.81a2 2 0 0 1-2 2c-1.11 0-2-.89-2-2a2 2 0 1 1 4 0m-1.3 0c0 .39-.32.7-.7.7-.39 0-.7-.31-.7-.7s.31-.7.7-.7c.38 0 .7.31.7.7"/></svg>
